assets/images/Facebook.svg

<svg width="22" height="22" viewBox="0 0 22 22" fill="none" xmlns="http://www.w3.org/2000/svg">
<g clip-path="url(#clip0_1_719)">
<rect width="22" height="22" rx="11" fill="#4267B2"/>
<path d="M11.7345 18.3333V11.6431H13.9801L14.3163 9.03581H11.7345V7.37114C11.7345 6.61629 11.9441 6.10182 13.0267 6.10182L14.4073 6.10119V3.76928C14.1684 3.73762 13.3489 3.66666 12.3955 3.66666C10.4049 3.66666 9.04209 4.88165 9.04209 7.11306V9.03588H6.79065V11.6431H9.04202V18.3333L11.7345 18.3333Z" fill="#FEFEFE"/>
</g>
<defs>
<clipPath id="clip0_1_719">
<rect width="22" height="22" fill="white"/>
</clipPath>
</defs>
</svg>

<svg width="22" height="22" fill="none" xmlns="http://www.w3.org/2000/svg"><g clip-path="url(#clip0_1_719)"><rect width="22" height="22" rx="11" fill="#4267B2"/><path d="M11.735 18.333v-6.69h2.245l.336-2.607h-2.582V7.37c0-.755.21-1.27 1.293-1.27h1.38V3.77a18.504 18.504 0 00-2.011-.102c-1.991 0-3.354 1.215-3.354 3.446v1.923H6.791v2.607h2.251v6.69h2.693z" fill="#FEFEFE"/></g><defs><clipPath id="clip0_1_719"><path fill="#fff" d="M0 0h22v22H0z"/></clipPath></defs></svg>
